X:1
T:Oculi omnium
T:William Byrd 
T:Oculi omnium
T:Copyright © 2015 by CPDL.  This edition can be fully distributed, duplicated, performed, and recorded. 
T:Copyright © 2015 by CPDL.  This edition can be fully distributed, duplicated, performed, and recorded. 
T:Copyright © 2015 by CPDL.  This edition can be fully distributed, duplicated, performed, and recorded. 
T:Copyright © 2015 by CPDL.  This edition can be fully distributed, duplicated, performed, and recorded. 
T:Copyright © 2015 by CPDL.  This edition can be fully distributed, duplicated, performed, and recorded. 
T:Copyright © 2015 by CPDL.  This edition can be fully distributed, duplicated, performed, and recorded. 
T:Copyright © 2015 by CPDL.  This edition can be fully distributed, duplicated, performed, and recorded. 
T:Copyright © 2015 by CPDL.  This edition can be fully distributed, duplicated, performed, and recorded. 
T:Copyright © 2015 by CPDL.  This edition can be fully distributed, duplicated, performed, and recorded. 
C:William Byrd
C:
C:
C:
C:
C:
C:
C:
C:
C:
C:
C:
C:
C:
C:
Z:Copyright © 2015 by CPDL.  This edition can be fully distributed, duplicated, performed, and recorded.
Z:
%%score [ 1 2 3 4 ]
L:1/8
Q:1/2=88
M:4/2
K:D
V:1 treble nm="SOPRANO" snm="S."
V:2 treble nm="ALTO" snm="A."
V:3 treble-8 transpose=-12 nm="TENOR" snm="T."
V:4 bass nm="BASS" snm="B."
V:1
"^Gradual/Alleluia, Corpus Christi:The eyes of all look hopefully to you, and you give them their fruit in due season..You open up your hand and satisfy the desire of every living thing." z16 | %1
w: |
 z8 z4 F4- | F2 G2 A4 B6 B2 | A8 z4 A4- | A4 A4 B8 | d12 d4 | d8 z4 c4- | c4 c4 c4 d4 | B6 B2 A8- | %9
w: O-|* cu- li om- ni-|um, o-|* cu- li|om- ni-|um in|_ te spe- rant|Do- mi- ne:|
 A8 z8 | z8 c8 | d8 B4 e4- | e4 c4 f6 e2 | d2 c2 B8 c2 d2 | e8 z8 | B8 c6 B2 | A4 B2 c2 d8 | %17
w: _|et|tu das il-|* lis e- *||scam|in tem- po-|re op- por- tu-|
 c4 c2 d2 e8 | c8 z8 | z8 z4 E4 | A6 G2 F4 G2 A2 | B6 A2 ^G2 F2 E2 F2 | ^G2 E2 A8 G4 | A16 || z16 | %25
w: no, op- por- tu-|no,|in|tem- po- re op- por-|tu- * * * * *||no.||
 z16 | z16 | z16 | z16 | z16 | z16 | z16 | z16 | z16 | z16 | z16 | z16 | z16 | z16 | z16 | z16 | %41
w: ||||||||||||||||
 z8 A8- || %42
w: Ca-|
"^Alleluia: For my flesh is true flesh indeed, and my blood is true drink.Whoever eats my flesh and drinks my blood remains in me and I in him." A4 A4 B8 | %43
w: * ro me-|
 A8 z8 | A6 A2 B4 d4- | d2 cB c4 B8 | F6 F2 G4 B4- | B4 A2 G2 A8 | z4 E4 A6 G2 | %49
w: a|ve- re est ci-|* * * * bus,|ve- re est ci-|* * * bus:|et san- guis|
 F4 D4 E2 F2 G2 A2 | F4 B4 d6 c2 | B4 A2 d4 cB c4 | d8 z8 | B6 B2 c4 e4- | e2 d2 c2 B2 A8 | %55
w: me- * * * * *|us, et san- guis|me- * * * * *|us|ve- re est po-|* * * * tus,|
 z8 A6 B2 | c4 d6 c2 B2 A2 | ^G4 G6 A2 B4 | c6 B2 A2 G2 F2 B2- | B2 A2 A8 ^G4 || A8 c8- | %61
w: ve- re|est po- * * *|tus, ve- re est|po- * * * * *||tus: qui|
 c4 c4 d8 | d4 d8 c4 | c6 dc B2 c2 d2 B2 | c8 z4 c4 | d8 B4 e4- | e4 d4 B6 B2 | B8 z4 B4 | %68
w: _ man- du-|cat me- am|car- * * * * * *|nem, et|bi- bit me-|* um san- gui-|nem, in|
 c8 d6 c2 | B2 A2 B8 ^A4 | B8 z8 | z8 z4 B4 | c8 d6 c2 | B2 A2 B2 A2 G2 F2 E2 G2 | F8 z4 B4 | %75
w: me ma- *||net,|in|me ma- *||net, et|
 e8 c4 ^d4 | e2 =d2 c2 B2 c8 | z8 z4 A4 | d8 B4 c4 | d2 c2 B2 A2 ^G4 z2 G2 | A4 F4 ^G6 A2 | %81
w: e- go in|e- * * * o,|et|e- go in|e- * * * o, et|e- go in e-|
 B2 A2 A8 ^G4 | A16 || A4 A4 B8- | B8 B8 | z8 e6 d2 | c2 B2 A2 B2 c8 | A8 z8 | z8 A6 G2 | %89
w: |o.|Al- le- lu-|* ia.|Al- le-|lu- * * * *|ia.|Al- le-|
 F2 E2 D2 E2 F8 | E16 |] %91
w: lu- * * * *|ia.|
V:2
 z16 | z8 z4 D4- | D2 E2 F4 G6 G2 | F8 F4 E4 | F8 D6 G2- | G2 FE F2 G2 A2 G2 F2 E2 | D2 C2 B,4 E8 | %7
w: |O-|* cu- li om- ni-|um in te|spe- rant Do-||* * mi- ne,|
 E6 D2 E2 C2 F4- | F4 E4 F8 | z4 F4 B,4 D4- | D2 CB, C2 B,2 A,8 | F8 G8 | E4 A8 F4 | %13
w: spe- rant Do- * *|* mi- ne,|spe- rant, Do-|* * * * mi- ne:|et tu|das il- lis|
 B6 A2 G2 F2 E4- | E4 F2 G2 A4 A4- | A4 ^G4 A4 E4 | F6 E2 D4 F2 G2 | A8 ^G8 | z4 A8 =G4 | F8 ^G8 | %20
w: e- * * * *|* * * scam, e-|* * scam in|tem- po- re op- por-|tu- no,|op- por-|tu- no,|
 z4 A,8 D4- | D4 C4 B,4 C2 D2 | E16 | C16 || z16 | z16 | z4 D6 E2 F4 | G4 B8 A4 | G8 F8 | %29
w: in tem-|* po- re op- por-|tu-|no.|||A- pe- ris|tu ma- num|tu- am:|
 z4 E4 A8 | F4 A8 D4 | E6 F2 G4 F4- | F4 E4 A,4 D4 | C2 A,2 A8 G4 | F4 D4 B,4 C4 | D8 z4 E2 D2 | %36
w: et im-|ples om- ne|a- ni- mal be-|* ne- di- cti-|o- ne, be- ne-|di- cti- o- *|ne. Al- le-|
 C4 D4 B,8 | E6 E2 F4 D4 | z4 A2 G2 F4 G4 | E4 F2 E2 D4 E4 | C2 E3 D D4 CB, C4 | D16 || D12 E4 | %43
w: lu- * ia.|Al- le- lu- ia.|Al- le- lu- *|ia. Al- le- lu- *|ia. Al- le- lu- * * *|ia.|Ca- ro|
 F8 B,8 | z16 | A,6 A,2 B,4 D4- | D2 CB, C4 B,2 B,4 C2 | D4 F6 ED C2 B,2 | C8 z8 | z8 z4 E4 | %50
w: me- a||ve- re est ci-|* * * * bus, ve- re|est ci- * * * *|bus:|et|
 A6 G2 F4 D4- | D2 E2 F2 G2 E8 | D6 E2 F4 G4- | G2 F2 E2 D2 C2 A,4 B,2 | C4 E8 ^D4 | E8 C6 D2 | %56
w: san- guis me- *|* * * * us|ve- re est po-|* * * * tus, ve- re|est po- *|tus, ve- re|
 E4 F6 E2 D2 C2 | B,8 z8 | A,6 B,2 C4 D4- | D2 C2 B,2 A,2 B,8 || C8 A8- | A4 A4 B8 | A8 A8 | %63
w: est po- * * *|tus,|ve- re est po-||tus: qui|_ man- du-|cat me-|
 A4 A8 ^G4 | A4 E4 A8 | F4 F4 G8 | E4 F6 E2 E4- | E4 ^D4 E8 | z4 E4 F4 G4- | %69
w: am car- *|nem, et bi-|bit, et bi-|bit me- um san-|* gui- nem|in me ma-|
 G2 F2 E2 D2 C2 B,2 C4 | B,8 z4 E4 | F4 G8 F4 | E8 D4 B,4 | D8 B,4 C4 | D2 C2 B,2 A,2 B,8 | %75
w: |net, in|me ma- *|* net, et|e- go in|e- * * * o,|
 C4 A8 F4 | ^G4 A2 =G2 F2 E2 F4- | F4 E2 D2 C8 | z4 D4 G4 E4 | F4 G2 F2 E2 D2 C2 B,2 | %80
w: et e- go|in e- * * * *|* * * o,|et e- go|in e- * * * * *|
 C2 E2 D2 C2 B,2 E,2 E4- | E4 C2 D2 E3 D B,2 D2 | C16 || F6 E2 ^D4 E4- | E4 ^D4 E8 | z4 A8 ^G4 | %86
w: * * * * o, et e-|* go in e- * * *|o.|Al- le- lu- *|* * ia.|Al- le-|
 A8 E8 | z8 A6 G2 | F2 E2 D2 E2 F4 E4 | D8 A,4 D4- | D4 C2 B,2 C8 |] %91
w: lu- ia.|Al- le-|lu- * * * * *|ia. Al- le-|* lu- * ia.|
V:3
 A12 A4 | B8 d8- | d4 d4 d8 | z4 c8 c4 | c4 d4 B6 B2 | A8 z4 F4- | F4 ^G4 A4 E4 | A6 B2 c4 B2 A2 | %8
w: O- cu-|li om-|* ni- um|in te|spe- rant Do- mi-|ne, in|_ te spe- rant|Do- * * * *|
 B4 B4 c4 c4- | c4 d8 B4 | e8 c4 f4- | f2 e2 d2 c2 d4 G4 | A16 | z8 B8 | c6 B2 A4 c2 d2 | %15
w: * mi- ne: et|_ tu das|il- lis e-||scam|in|tem- po- re op- por-|
 e8 A4 A4 | d6 c2 B4 d2 e2 | f8 e4 e4- | e2 c2 f6 e2 e4- | e4 ^d4 e4 B4 | c6 B2 A4 B2 c2 | d12 c4 | %22
w: tu- no, in|tem- po- re op- por-|tu- no, op-|* por- tu- * *|* * no, in|tem- po- re op- por-|tu- *|
 B2 c2 B2 A2 B8 | A16 || z4 F6 G2 A4 | B4 d8 c4 | B8 A8 | B6 c2 d2 e2 f4- | f2 e2 e8 ^d4 | %29
w: |no.|A- pe- ris|tu ma- num|tu- am,|ma- num tu- * *||
 e8 z4 c4 | d8 A4 B4- | B4 A4 B6 c2 | d4 g8 f4 | e4 d4 B6 c2 | d8 z8 | z4 A2 G2 F4 ^G4 | %36
w: am: et|im- ples om-|* ne a- ni-|mal be- ne-|di- cti- o- *|ne.|Al- le- lu- *|
 A8 z4 e2 d2 | c8 d4 B4 | A2 G2 F4 B8 | A16 | z4 G2 F2 E4 A4 | F16 || z16 | z16 | z16 | z16 | z16 | %47
w: ia. Al- le-|lu- * ia.|Al- le- lu- *|ia.|Al- le- lu- *|ia.||||||
 z16 | z16 | z16 | z16 | z16 | z16 | z16 | z16 | z16 | z16 | z16 | z16 | z16 || z8 e8- | e4 e4 g8 | %62
w: |||||||||||||Qui|_ man- du-|
 f8 z4 f4- | f4 e4 d8 | e8 z4 A4 | B8 G8 | A12 G4 | F6 F2 ^G8 | A6 c2 B8 | z16 | z4 B4 c8 | %71
w: cat me-|* am car-|nem, et|bi- bit|me- um|san- gui- nem,|san- gu- nem||in me|
 d6 c2 B2 A2 B4- | B4 ^A4 B8- | B8 z4 E4 | A8 F4 ^G4 | A2 =G2 F2 E2 F4 B4 | E8 z4 A4 | %77
w: ma- * * * *|* * net,|_ et|e- go in|e- * * * * *|o, et|
 d4 B4 e4 f4- | f2 e2 f2 d2 e2 d2 c4 | B8 z4 E4- | E4 B8 ^G4- | G4 A4 B8 | A16 || %83
w: e- go in e-||o, et|_ e- go|_ in e-|o.|
 d6 c2 B2 A2 G2 A2 | B8 E4 B4- | B2 B2 c4 B8 | e6 d2 c2 B2 A2 B2 | c4 d8 c4 | d8 A4 A4- | %89
w: Al- le- lu- * * *|* ia. Al-|* le- lu- ia.|Al- le- lu- * * *|ia. Al- le-|lu- ia. Al-|
 A2 G2 F2 E2 D2 E2 F2 G2 | A16 |] %91
w: * le- lu- * * * * *|ia.|
V:4
 z4 D,6 E,2 F,4 | G,6 G,2 D,8 | z8 G,8 | D,4 F,6 G,2 A,2 G,2 | F,2 E,2 D,8 G,4 | D,8 D,6 C,2 | %6
w: O- cu- li|om- ni- um|in|te spe- rant Do- *|* * * mi-|ne, Do- mi-|
 B,,8 A,,8 | A,,4 A,8 G,2 F,2 | G,4 G,4 F,8 | F,8 G,8 | E,4 A,8 F,4 | B,6 A,2 G,2 F,2 E,2 D,2 | %12
w: ne, spe-|rant Do- * *|* mi- ne:|et tu|das il- lis|e- * * * * *|
 C,2 B,,2 A,,4 D,8 | B,,8 E,6 D,2 | C,4 D,2 E,2 F,8 | E,8 z8 | z16 | z8 E,8 | A,6 G,2 F,4 G,2 A,2 | %19
w: * * * scam|in tem- po-|re op- por- tu-|no,||in|tem- po- re op- por-|
 B,8 E,8 | z4 A,,4 D,6 C,2 | B,,4 C,2 D,2 E,8- | E,16 | A,,16 || D,12 D,4 | D,8 E,8 | G,12 F,4 | %27
w: tu- no,|in tem- po-|re op- por- tu-||no.|A- pe-|ris tu|ma- num|
 E,8 D,8 | z4 E,4 B,8 | ^G,4 A,8 A,,4 | D,6 E,2 F,4 G,4- | G,4 F,4 E,4 D,4 | B,,6 C,2 D,8 | %33
w: tu- am:|et im-|ples om- ne|a- ni- mal be-|* ne- di- cti-|o- * ne.|
 z4 F,2 E,2 D,4 E,4 | D,4 B,2 A,2 G,4 A,4 | D,8 z8 | z4 F,2 E,2 D,4 E,4 | A,,4 A,2 G,2 F,4 G,4 | %38
w: Al- le- lu- *|ia. Al- le- lu- *|ia.|Al- le- lu- *|ia. Al- le- lu- *|
 D,8 z4 E,2 D,2 | C,4 D,8 C,2 B,,2 | A,,16 | D,16 || z16 | D,12 E,4 | F,8 B,,8 | F,6 F,2 G,4 B,4- | %46
w: ia. Al- le-|lu- * * *||ia.||Ca- ro|me- a|ve- re est ci-|
 B,2 A,G, A,4 G,8 | F,8 z4 F,4 | A,6 G,2 F,4 D,4- | D,2 E,2 F,2 G,2 E,8 | D,16 | z8 A,6 A,2 | %52
w: |bus: et|san- guis me- *||us|ve- re|
 B,4 D6 C2 B,2 A,2 | G,8 A,8 | A,6 G,2 F,8 | E,6 E,2 F,4 A,4- | A,2 G,2 F,2 E,2 D,4 D,4 | %57
w: est po- * * *|tus, est|po- * tus,|ve- re est po-|* * * * tus, est|
 E,6 D,2 C,4 B,,4 | A,,4 A,6 A,2 D,4 | F,8 E,8 || A,,8 A,8- | A,4 A,4 G,8 | D,8 F,8- | %63
w: po- * * *|tus, ve- re est|po- *|tus: qui|_ man- du-|cat me-|
 F,4 A,4 B,8 | A,16 | z4 D,4 E,8 | C,4 D,8 E,4 | B,,6 B,,2 E,8 | z16 | E,8 F,8 | %70
w: * am car-|nem,|et bi-|bit me- um|san- gui- nem||in me|
 G,6 F,2 E,2 D,2 C,2 E,2 | D,2 C,2 B,,2 C,2 D,2 C,2 D,2 E,2 | C,8 B,,8 | z4 B,,4 E,8 | %74
w: ma- * * * * *||* net,|et e-|
 D,6 C,2 D,4 E,4 | A,,8 z8 | z4 A,,4 A,8 | F,4 ^G,4 A,2 =G,2 F,2 E,2 | D,8 z8 | z4 B,,4 E,8 | %80
w: go in e- *|o,|et e-|go in e- * * *|o,|et e-|
 C,4 D,4 E,8- | E,16 | A,,16 || z16 | z8 G,6 F,2 | E,2 D,2 C,2 D,2 E,8 | A,,8 A,6 G,2 | %87
w: go in e-||o.||Al- le-|lu- * * * *|ia. Al- le-|
 F,2 E,2 D,2 E,2 F,8 | D,4 D,8 C,4 | D,16 | A,,16 |] %91
w: lu- * * * *|ia. Al- le-|lu-|ia.|

